!!!!SEGMENT: pl-wn--mus-iii-105-719-1--012_zelenski-wladyslaw--25-preludyi-op-38-12-andante-sostenuto.krn
!!!cenid: 18xx:3745
!!!COM: Żeleński, Władysław
!!!COM-rismID: pe41024455
!!!CDT: 1837/07/06-1921/01/23
!!!CNT: Polish
!!!GTL: 25 preludyi op. 38
!!!OTL: 12. Andante sostenuto
!!!OMV: 012
!!!PDT: 1881
!!!AGN:
!!!SMS-siglum: PL-Wn
!!!SMS-shelfmark: Mus.III.105.719/1
!!!SMS-shelfwork: 001-012 G
!!!SMS-variant:
!!!SMS-altvar:
!!!NIFC-rismSourceID:
!!!NIFC-rismChildID:
!!!NIFC-islandoraID: none
!!!URL-pdf-islandora:
!!!URL-scan: https://polona.pl/item/25-preludyi-2-3-i-4-glosowych-na-organ-lub-fisharmonike-do-uzytku-organistow-i,ODE1NjEwMzc/2 @EN{Scan on Polona} @PL{Skany w portalu Polona}
!!!IIIF: https://polona.pl/iiif/item/ODE1NjEwMzc/manifest.json
!!!ONB-nifc:
!!!AIN: 2 piano
!!!key: b
**kern	**fing	**dynam	**kern	**fing	**dynam
*part2	*part2	*part2	*part1	*part1	*part1
*staff2	*	*	*staff1	*	*
*I"Organ	*	*	*I"Organ	*	*
*I'org	*	*	*I'org	*	*
*ICklav	*	*	*ICklav	*	*
*Ipiano	*	*	*Ipiano	*	*
*clefF4	*	*	*clefG2	*	*
*k[f#c#]	*	*	*k[f#c#]	*	*
*b:	*	*	*b:	*	*
*M4/4	*	*	*M4/4	*	*
*met(c)	*	*	*met(c)	*	*
=1	=1	=1	=1	=1	=1
*^	*	*	*	*	*
*xywh-#19:373,392,5140,894	*xywh-#19:373,392,5140,894	*	*	*xywh-#19:373,392,5140,894	*	*
!	!	!	!	!LO:TX:a:i:t=1) łagodnemi głosami 8 stopowemi / mit sanften 8 Fuſsstimmen	!	!
!	!	!	!LO:DY:a	!	!	!
8r	[1BB	5	p	2r	.	.
(8F#/L	.	2	.	.	.	.
8G/	.	1	.	.	.	.
8F#/J	.	2	.	.	.	.
[2B/	.	1	.	4r	.	.
.	.	.	.	(>4d/	4	.
=2	=2	=2	=2	=2	=2	=2
4B/]	1BB_	.	.	4c#/	.	.
8A/L	.	1	.	4e/	.	.
8G/J	.	2	.	.	.	.
4F#/	.	3	.	4A#X/	2	.
4E/	.	1	.	4c#/	1	.
=3	=3	=3	=3	=3	=3	=3
*	*	*	*	*^	*	*
8D/L)	1BB_	2	.	4B/)	4ryy	3	.
8F#/	.	1	.	.	.	.	.
8G/	.	2	.	4r	4ryy	.	.
8F#/J	.	1	.	.	.	.	.
2ryy	.	.	.	4r	[2d\	3	.
.	.	.	.	(4f#/	.	4	.
*v	*v	*	*	*	*	*	*
=4	=4	=4	=4	=4	=4	=4
1BB_	.	.	4e/	4d\]	4	.
.	.	.	4g/	8c#\L	5	.
.	.	.	.	8B\J	.	.
.	.	.	4c#/	4A#X\	3	.
.	.	.	4e/	8G#X\L	1 5	.
.	.	.	.	8A#\J	2	.
=5	=5	=5	=5	=5	=5	=5
4BB/]	.	.	8d/L)	8B\	1 3	.
.	.	.	(8f#/	8r	2	.
4r	.	.	8g/	4r	.	.
.	.	.	8f#/J	.	.	.
2r	.	.	[2dd/	4r	5	.
.	.	.	.	4f#\	2	<
=6	=6	=6	=6	=6	=6	=6
1r	.	.	4dd/]	4e#X\	3	.
.	.	.	8cc#/L	4g#X\	1 3	.
.	.	.	8b/J	.	1	.
.	.	.	4a/	4c#\	4 3	.
.	.	.	4g#X/	[4e#\	1 2	[
=7	=7	=7	=7	=7	=7	=7
8r	.	.	4b/	4e#\]	5	.
8C#/L	3	.	.	.	.	.
8D/	.	.	2a/	8f#\L	3 4	.
8C#/J	.	.	.	8en\J	2	.
4F#\	.	.	.	2d\	1	.
[4BB/	2	.	8g#X/L	.	3	.
.	.	.	8f#/J	.	2	.
=8	=8	=8	=8	=8	=8	=8
4BB/]	.	.	4e#X/	4.d\	4	>
4AA/	.	.	2f#/	.	5	.
.	.	.	.	8c#\	3	.
4GG#X/	.	.	.	2B\	2	.
4C#/	.	.	4e#/	.	4	]
=9	=9	=9	=9	=9	=9	=9
8r	.	.	2A/) 2f#	2ryy	1 5	.
(<8FF#/L	3	.	.	.	.	.
8GG#X/	.	.	.	.	.	.
8FF#/J	.	.	.	.	.	.
[2C#/	.	.	2r	8r	.	.
.	.	.	.	(>8A\L	1	.
.	.	.	.	8B\	2	.
.	.	.	.	8A\J	1	.
=10	=10	=10	=10	=10	=10	=10
!	!	!LO:HP:a:t=poco cresc.	!	!	!	!
4C#/]	.	<	8r	2.d\	2-1	.
.	.	.	8f#/L	.	3	.
4BB/	.	.	8g#X/	.	.	.
.	.	.	8f#/J	.	.	.
4AA/	1	.	4cc#/	.	5	.
8GG#X/L	.	.	8b/L	4d#X\	2 5	.
8FF#/J	.	.	8a/J	.	4	.
!!LO:LB:g=original	!	!	!	!	!	!
=11	=11	=11	=11	=11	=11	=11
*xywh-#19:373,1261,5064,679	*	*	*xywh-#19:373,1261,5064,679	*xywh-#19:373,1261,5064,679	*	*
!LO:TX:t=P:problem=mixed beam	!	!	!	!	!	!
8EE/L)	.	.	4e/) 4g#X	4ryy	1 3	.
8E\	3	.	.	.	.	.
(8F#\	.	.	4r	4r	.	.
8E\J	.	.	.	.	.	.
[2B\	.	.	2r	8r	.	.
.	.	.	.	(>8G#X\L	1	.
.	.	.	.	8A\	2	.
.	.	.	.	8G#\J	1	.
=12	=12	=12	=12	=12	=12	=12
4B\]	.	.	8r	2.c#\)	2	.
.	.	.	(8e/L	.	3	.
8A\L	.	.	8f#/	.	.	.
8G#X\J	.	.	8e/J	.	.	.
8F#\L	.	.	4a/	.	.	.
8D#X\J	.	.	.	.	.	.
4G#\	.	.	8g#X/L	4B#X\	.	.
.	.	.	8f#/J	.	.	.
=13	=13	=13	=13	=13	=13	=13
!	!	!	!LO:TX:a:i:t=2) dołączyć głos 4 stopowy / eine 4 Fuſsstimme hierzufügen	!	!	!
8C#/)	.	.	8e/L)	8c#\	.	.
8r	.	.	(8g#X/	8r	2	p
4r	.	.	8a/	4r	.	.
.	.	.	8g#/J	.	.	.
2r	.	.	[2ee/	4r	5	.
.	.	.	.	4g#\	2	<
=14	=14	=14	=14	=14	=14	=14
4r	.	.	4ee/]	4f##X\	1	.
(4FF##X/	.	.	8dd#X/L	2a#X\	2-1 4	.
.	.	.	8cc#/J	.	3	.
8GG/L	.	.	4b/	.	4	.
8AA#X/J	.	.	.	.	.	.
4BB/	.	.	4ddn/	8g#X\L	2 5	.
.	.	.	.	8f#X\J	1	.
=15	=15	=15	=15	=15	=15	=15
8C#/)	.	.	8g#X/)	8e#X\L	1 2	[ p
8r	.	.	8r	(>8c#\	1	.
4r	.	.	4r	8d\	2	.
.	.	.	.	8c#\J	1	.
2r	.	.	4r	[2a\	2	<
.	.	.	4cc#/	.	4	.
=16	=16	=16	=16	=16	=16	=16
!	!	!	!LO:TX:b:i:t=cresc.sempre	!	!	!
4r	.	.	4b/	4a\]	.	[
(4BB/	.	.	2dd/	8g#X\L	.	.
.	.	.	.	8f#\J	.	.
8C#/L	.	.	.	4e#X\	1	.
8D#X/J	.	.	.	.	.	.
4E#X\	.	.	8cc#/L	[4g#\	2 4	.
.	.	.	8b/J	.	3	.
=17	=17	=17	=17	=17	=17	=17
8F#\L)	.	.	2a/	2.g#\]	3 4	.
(8C#\	.	.	.	.	.	.
8Dn\	.	.	.	.	.	.
8C#\J	.	.	.	.	.	.
8F#\L	3	.	8a/L	.	.	.
8G#X\J	2	.	8b/J	.	4	.
4A\	1-2	.	[4ccn/	(>8f#\L	2 5	.
.	.	.	.	8e\J	1	.
=18	=18	=18	=18	=18	=18	=18
(<2.B\)	.	.	(8cc/L])	[2d#X\)	5	.
.	.	.	8b/	.	5	.
.	.	.	8f#/	.	.	.
.	.	.	8g#X/J	.	4	.
.	.	.	[2a/	8d#\L]	5	.
.	.	.	.	(8c#\	.	.
4BB/	.	.	.	8d#\	.	.
.	.	.	.	8f#\J	.	.
!!LO:LB:g=original	!	!	!	!	!	!
=19	=19	=19	=19	=19	=19	=19
*xywh-#19:380,1921,5032,685	*	*	*xywh-#19:380,1921,5032,685	*xywh-#19:380,1921,5032,685	*	*
2E\	.	.	(8a/L)]	4B\	1	.
.	.	.	8g#X/	.	5	.
.	.	.	8en/	[4d\)	2 3	.
.	.	.	8f#/J	.	4	.
2AA/	.	.	[2gn/	8d\L]	5	.
.	.	.	.	(8B\	.	.
.	.	.	.	8c#\	.	.
.	.	.	.	8e\J	.	.
=20	=20	=20	=20	=20	=20	=20
2D\	.	.	8g/L)]	4A\	.	.
.	.	.	(8f#/	.	.	.
.	.	.	8dn/	[4c#\)	.	.
.	.	.	8e/J	.	.	.
[2GG/	5	.	(2fn/	8c#\L]	.	.
.	.	.	.	8A\	.	.
.	.	.	.	8B\	.	.
.	.	.	.	8d\J	.	.
=21	=21	=21	=21	=21	=21	=21
!	!	!	!LO:N:vis=4	!	!	!
4.GG/]	.	.	4.e#X/)	8c#X\L	2	.
.	.	.	.	8B\J	1	.
.	.	.	.	[4A#X\	2	.
8FF#/	2	.	8f#/	.	.	.
4EE/	4	.	4g/	8A#\L]	.	<
.	.	.	.	8d\	1	.
4EE#X/	3	.	4g#X/	8c#\	2 4-5	.
.	.	.	.	8B\J	1	[[
=22	=22	=22	=22	=22	=22	=22
!	!	!	!	!	!	!LO:HP:t=dim.
4FF#/	2	.	1c#	4A#X\	2 3	<
8GG/L	1	.	.	2B\	1	.
8EEn/J	3	.	.	.	.	.
2FF#/)	2	.	.	.	.	.
.	.	.	.	4A#\	2	.
=23	=23	=23	=23	=23	=23	=23
[1BB	1-5	.	8B/	8B\L)	.	.
!	!	!	!LO:TX:a:i:t=3) zamknąć głos 4 stopowy / ohne 4 Fuſsstimme	!	!	!
.	.	.	8r	(>8F#</	.	pp
.	.	.	4r	8G</	.	.
.	.	.	.	8F#</J	.	.
.	.	.	4r	[2B</	.	.
.	.	.	(4d/	.	.	.
=24	=24	=24	=24	=24	=24	=24
1BB]	.	.	4c#/	4B</]	.	.
.	.	.	4e/	8A</L	.	.
.	.	.	.	8G</J	.	.
.	.	.	4A#X/	4F#</	.	.
.	.	.	4c#/	4E</	.	.
=25	=25	=25	=25	=25	=25	=25
(<2.BB\	5-1	.	8B/)	8D</L)	.	.
.	1	.	8r	(8F#</	.	.
.	2	.	4r	8G</	.	.
.	1	.	.	8F#</J	.	.
.	.	.	4r	[2d\	.	<
4AA\	.	.	4f#/	.	.	.
=26	=26	=26	=26	=26	=26	=26
4GG/	.	.	4e/	4d\]	.	.
4EE/	.	.	4g/	8c#\L	.	[
.	.	.	.	8B\J	.	.
2FF#/	.	.	4c#/	4A#X\	.	>
.	.	.	4e/	8G#X\L	.	.
.	.	.	.	8A#\J	.	.
=27	=27	=27	=27	=27	=27	=27
8GG/)	.	.	8d/L)	8B\	.	]
!	!	!	!LO:TX:a:i:t=4) z głosem 4 stopowym / mit 4 Fuſsstimme	!	!	!
8r	.	.	(8d/	8r	.	pp
4r	.	.	8e/	4r	.	.
.	.	.	8d/J	.	.	.
2r	.	.	[2b/	4r	.	.
.	.	.	.	4d\	2	.
!!LO:LB:g=original	!	!	!	!	!	!
=28	=28	=28	=28	=28	=28	=28
*xywh-#19:367,2537,5019,704	*	*	*xywh-#19:367,2537,5019,704	*xywh-#19:367,2537,5019,704	*	*
1r	.	.	4b/]	4cn\	3	.
.	.	.	8a/L	4e\	3	.
.	.	.	8g/J	.	1	.
.	.	.	4f#/	4A\	4 4	.
.	.	.	4e/	[4c\	1 3	.
=29	=29	=29	=29	=29	=29	=29
8r	.	.	4g/	4c\]	.	.
(<8AA/L	3	.	.	.	.	.
8BB/	.	.	2f#/	8d\L	2 4-5	<
8AA/J	.	.	.	8cn\J	1	.
4D\	.	.	.	[2B\	2-1	.
4GG/	.	.	8e/L	.	4	.
.	.	.	8d/J	.	3	[[
=30	=30	=30	=30	=30	=30	=30
4.Cn\	2	.	2.e/	8B\L]	5	>
.	.	.	.	8G#X</	2	.
.	.	.	.	8A</	1	.
8BB\	1	.	.	8Gn</J	2	.
4AA\	.	.	.	8F#</L	1	.
.	.	.	.	8cn</	2	.
8GG\L	.	.	4d#X/	8B</	1	]
8FF#\J	.	.	.	8A</J	2	.
=31	=31	=31	=31	=31	=31	=31
8EE\)	1	.	8e/L) 8G<\	8Gyy	.	.
!	!	!	!LO:TX:b:i:t=dolce	!	!	!
8r	.	.	(8e/	8r	2	<
4r	.	.	8f#/	4r	3	.
.	.	.	8e/J	.	1	.
2r	.	.	[2b/	8r	4	.
.	.	.	.	8g\L	.	.
.	.	.	.	8a\	.	.
.	.	.	.	8g\J	.	.
=32	=32	=32	=32	=32	=32	=32
8r	.	.	4b/]	2.ccn\	5	.
(8E\L	4	.	.	.	.	.
8F#\	3	.	4a/	.	3	.
8E\J	5	.	.	.	.	.
4B\	.	.	4g/	.	.	.
8A\L	.	.	8f#/L	4cc#X\	2	.
8G\J	.	.	8e/J	.	1	[[
=33	=33	=33	=33	=33	=33	=33
8F#\)	.	.	8dd/)	8d\L	5	p
8r	.	.	8r	(>8d\	2	.
4r	.	.	4r	8e\	3	.
.	.	.	.	8d\J	1	.
2r	.	.	8r	[>2a\	4	.
.	.	.	8f#/L	.	2	<
.	.	.	8g/	.	3	.
.	.	.	8f#/J	.	2	.
=34	=34	=34	=34	=34	=34	=34
8r	.	.	[2b/	4a\]	5	.
(8D\L	4	.	.	.	.	.
8E\	.	.	.	8g\L	1	.
8D\J	.	.	.	8f#\J	3	.
4G\	.	.	4.b/]	8e\L	2	.
.	.	.	.	8c#X\J	1	.
4F#\	.	.	.	4d#X\	2	.
.	.	.	8a/	.	4	[
=35	=35	=35	=35	=35	=35	=35
*^	*	*	*	*	*	*
8r)yy	8E\	.	.	(8g/L)	8e\	1 3	.
8r	8r	.	.	8B/	8ryy	2	.
4r	4r	.	.	8cn/	4ryy	3	.
.	.	.	.	8B/J	.	1	.
8r	2r	.	.	4g/	2ryy	5	<
(<8G/L	.	3	.	.	.	.	.
8A/	.	2	.	[>4fn/	.	4-5	.
8G/J)	.	3	.	.	.	.	.
*v	*v	*	*	*	*	*	*
=36	=36	=36	=36	=36	=36	=36
8r	.	.	4f/]	[2cn\	2	.
(8GG/L	4	.	.	.	.	.
8AA/	3	.	4e/	.	4	.
8GG/J	5	.	.	.	.	.
4G\	1	.	4d/	8c\L]	3	.
.	.	.	.	8A\	1	.
4E\	2	.	4g/	8B\	2 5	.
.	.	.	.	8c#X\J	3	.
!!LO:LB:g=original	!	!	!	!	!	!
=37	=37	=37	=37	=37	=37	=37
*xywh-#19:367,3159,5190,1167	*	*	*xywh-#19:367,3159,5190,1167	*xywh-#19:367,3159,5190,1167	*	*
8D\)	.	.	8fn/L)	8d\	1 4	.
8r	.	.	(8d/	8r	.	.
4r	.	.	8e/	4r	.	.
.	.	.	8d/J	.	.	.
2r	.	.	4a/	8r	.	.
.	.	.	.	(<8A</L	.	.
.	.	.	[4g/	8B-X</	.	.
.	.	.	.	8A</J)	.	.
=38	=38	=38	=38	=38	=38	=38
8r	.	.	4g/]	[2d\	.	.
(8AA/L	4	.	.	.	.	.
8BB-X/	3	.	4fn/	.	.	.
8AA/J	5	.	.	.	.	.
4A\	.	.	4e/	8d\L]	.	.
.	.	.	.	8B\	.	.
4F#X\	.	.	4a/	8c#X\	.	.
.	.	.	.	8d#X\J	.	.
=39	=39	=39	=39	=39	=39	=39
8E\)	.	.	8g/L)	8e\	.	.
8r	.	.	8e/	8r	2	.
4r	.	.	8f#/	4r	3	.
.	.	.	8e/J	.	1	.
2r	.	.	4b/	8r	5	.
.	.	.	.	(<8B</L	4-5	.
.	.	.	[4a/	8cn</	.	.
.	.	.	.	8B</J)	.	.
=40	=40	=40	=40	=40	=40	=40
8r	.	.	4a/]	2e\	1	.
(8BB/L	4	.	.	.	.	.
!	!	!	!	!	!	!
8Cn/	3	<	4g/	.	.	.
8BB/J	5	.	.	.	.	.
8B\L	.	.	4f#/	8e\L	.	.
8A\	.	.	.	8c#\J	2	.
8G\	.	.	8b/L	[4d\	1	.
8F#\J	.	[	8a/J	.	.	.
=41	=41	=41	=41	=41	=41	=41
4E\	5	>	4g/	4d\]	.	.
4G\	2	.	(2e/	8c#\L	3 5	.
.	.	.	.	8B\J	1	.
4F#\	1	.	.	2A#X\	2	.
4FF#/	.	.	8d/L	.	.	.
.	.	]	8c#/J	.	.	.
=42	=42	=42	=42	=42	=42	=42
[1BB)	.	.	4B/)	4B\	1	.
!	!	!	!LO:TX:a:i:t=5) łagodnie jak z początku / zart wie anfangs.	!	!	!
.	3	.	(>2cn/	8A</L	.	pp
.	1	.	.	8G</J	.	.
.	2	.	.	8F#</L	.	.
.	1	.	.	8E</	.	.
.	2	.	[4c#X/	8A</	4	.
.	1	.	.	8G</J	.	.
=43	=43	=43	=43	=43	=43	=43
!	!	!	!	!	!	!LO:HP:b:t=cresc.poco a poco
1BB_	.	.	4c#/]	4F#</	2	<
.	.	.	2d/	8B</L	5	.
.	.	.	.	8A</J	.	.
.	.	.	.	8G</L	.	.
.	.	.	.	8F#</	.	.
.	.	.	4d#X/	8B</	4	.
.	.	.	.	8A</J	.	.
=44	=44	=44	=44	=44	=44	=44
1BB_	2	.	4e/	8G#X</L	5	.
.	3	.	.	8d</	.	.
.	2	.	4e#X/	8c#</	4	.
.	1	.	.	8B</J	.	.
.	2	.	4f#/	8A#X</L	5-4	.
.	3	.	.	8en\	.	.
.	2	.	[4g#X/	8d\	5	.
.	1	.	.	8B\J	.	.
=45	=45	=45	=45	=45	=45	=45
1BB_	.	.	4g#/]	4c#\	2	.
.	.	.	2a/	8f#\L	3 5	>
.	.	.	.	8e\J	1	.
.	.	.	.	8d\L	2	.
.	.	.	.	8c#\	1	.
.	.	.	4a#X/	8f#\	3 4	.
.	.	.	.	8e\J	2	.
=46	=46	=46	=46	=46	=46	=46
1BB]	.	.	1b;)	1d	1 5	]
*	*	*	*v	*v	*	*
==	==	==	==	==	==
*-	*-	*-	*-	*-	*-
!!!system-decoration: {(s1,s2)}
!!!RDF**kern: > = above
!!!RDF**kern: < = below
!!!ENC: Anastazja Marusiak
!!!END: 2022-03-14
!!!ENC: Jan Barakat
!!!END: 2022-03-18
!!!ENC-iiif: Jan Barakat
!!!END-iiif: 2022-08-31
!!!YEC: Copyright 2022 Narodowy Instytut Fryderyka Chopina (https://polishscores.org)
!!!YEM: License CC-BY-4.0 (https://creativecommons.org/licenses/by/4.0)
